svgs/sharp-thin/input-text.svg

<svg xmlns="http://www.w3.org/2000/svg" viewBox="0 0 640 512"><!--! Font Awesome Pro 6.6.0 by @fontawesome - https://fontawesome.com License - https://fontawesome.com/license (Commercial License) Copyright 2024 Fonticons, Inc. --><path d="M16 80l0 352 608 0 0-352L16 80zM0 64l16 0 608 0 16 0 0 16 0 352 0 16-16 0L16 448 0 448l0-16L0 80 0 64zm280 96l32 0 20 0c28.7 0 52 23.3 52 52c0 15.7-6.9 29.7-17.9 39.2c19.8 7.4 33.9 26.4 33.9 48.8c0 28.7-23.3 52-52 52l-36 0-32 0-8 0 0-8 0-24 0-64 0-64 0-24 0-8 8 0zM248.7 352l-17.4 0-17.4-40-107.8 0L88.7 352l-17.4 0 1.4-3.2 80-184 2.1-4.8 10.5 0 2.1 4.8 80 184 1.4 3.2zM160 188.1L113.1 296l93.9 0L160 188.1zM288 192l0 56 44 0c19.9 0 36-16.1 36-36s-16.1-36-36-36l-44 0 0 16zm44 72l-44 0 0 56 0 16 60 0c19.9 0 36-16.1 36-36s-16.1-36-36-36l-16 0z"/></svg>

<svg xmlns="http://www.w3.org/2000/svg" viewBox="0 0 640 512"><!--! Font Awesome Pro 6.5.2 by @fontawesome - https://fontawesome.com License - https://fontawesome.com/license (Commercial License) Copyright 2024 Fonticons, Inc. --><path d="M16 80V432H624V80H16zM0 64H16 624h16V80 432v16H624 16 0V432 80 64zm280 96h32 20c28.7 0 52 23.3 52 52c0 15.7-6.9 29.7-17.9 39.2c19.8 7.4 33.9 26.4 33.9 48.8c0 28.7-23.3 52-52 52H312 280h-8v-8V320 256 192 168v-8h8zM248.7 352H231.3l-17.4-40H106.1L88.7 352H71.3l1.4-3.2 80-184 2.1-4.8h10.5l2.1 4.8 80 184 1.4 3.2zM160 188.1L113.1 296h93.9L160 188.1zM288 192v56h44c19.9 0 36-16.1 36-36s-16.1-36-36-36H288v16zm44 72H288v56 16h60c19.9 0 36-16.1 36-36s-16.1-36-36-36H332z"/></svg>
